X: 31918
T: Peacock's Feathers, The
R: hornpipe
M: 4/4
K: Dmajor
|:DE|FEED A2AB|defd B2ef|gefd edBd|FAFD E2DE|
FEED A2AB|defd B2ef|gefd edB(A|A)dfe d2:|
|:fg|afge fdec|defd B2ef|gefd edBd|FAFD E2DE|
FEED A2AB|defd B2ef|gefd edB(A|A)dfe d2:|

